src/assets/images/icons/signature.svg

<svg width="33" height="19" viewBox="0 0 33 19" fill="none" xmlns="http://www.w3.org/2000/svg">
<g opacity="0.85">
<path d="M28.8946 8.77551L23.7755 3.65644L25.9694 1.46255L31.0884 6.58162L28.8946 8.77551Z" stroke="white" stroke-width="1.25" stroke-linecap="round" stroke-linejoin="round"/>
<path d="M24.5068 4.38764L19.0221 5.48458L16.4625 16.0884L27.0663 13.5288L28.1633 8.04412L24.5068 4.38764Z" stroke="white" stroke-width="1.25" stroke-linecap="round" stroke-linejoin="round"/>
<path d="M16.4625 16.0884L22.0101 10.5408" stroke="white" stroke-width="1.25" stroke-linecap="round" stroke-linejoin="round"/>
<path d="M24.5068 9.50677C24.5068 8.699 23.852 8.04418 23.0442 8.04418C22.2364 8.04418 21.5816 8.699 21.5816 9.50677C21.5816 10.3145 22.2364 10.9694 23.0442 10.9694C23.852 10.9694 24.5068 10.3145 24.5068 9.50677Z" stroke="white" stroke-width="1.25" stroke-linecap="round" stroke-linejoin="round"/>
<path d="M3.38768 13.5275C2.98205 13.5275 2.67003 13.4339 2.45162 13.2467C2.24101 13.0595 2.1357 12.8489 2.1357 12.6149C2.1357 12.4121 2.2098 12.2365 2.35801 12.0883C2.50622 11.9401 2.72464 11.866 3.01325 11.866C3.11466 11.866 3.23167 11.8777 3.36428 11.9011C3.50468 11.9167 3.60999 11.9284 3.6802 11.9362C3.6724 11.7334 3.62559 11.5423 3.53979 11.3629C3.46178 11.1835 3.36038 11.0119 3.23557 10.8481C3.11076 10.6764 2.99375 10.5282 2.88455 10.4034C2.64273 10.8637 2.40092 11.2459 2.1591 11.5501C1.92509 11.8543 1.66767 12.1429 1.38685 12.416C1.24644 12.5564 1.09823 12.6266 0.942223 12.6266C0.817415 12.6266 0.716008 12.5837 0.638004 12.4979C0.559999 12.4043 0.520996 12.2912 0.520996 12.1585C0.520996 12.0025 0.5756 11.8582 0.684806 11.7256L0.836916 11.5384C1.26594 11.008 1.58966 10.5711 1.80808 10.2279C1.94069 10.0017 2.0967 9.70139 2.27611 9.32696C2.45552 8.94474 2.63103 8.55081 2.80264 8.14519C2.95085 7.80197 3.25897 7.63035 3.727 7.63035C3.94541 7.63035 4.09752 7.64986 4.18333 7.68886C4.26913 7.72786 4.31204 7.79027 4.31204 7.87607C4.31204 7.92287 4.29644 7.99698 4.26523 8.09839C4.23403 8.19979 4.19113 8.3012 4.13652 8.4026C3.99612 8.68342 3.92591 8.92134 3.92591 9.11635C3.92591 9.23336 3.96491 9.36206 4.04292 9.50247C4.12872 9.64288 4.25743 9.81839 4.42904 10.029C4.67866 10.3566 4.86587 10.6374 4.99068 10.8715C5.12329 11.0977 5.18959 11.3473 5.18959 11.6203C5.18959 11.6983 5.18179 11.8075 5.16619 11.9479C5.54841 11.7997 5.99694 11.4058 6.51178 10.7662C6.60538 10.6569 6.71069 10.6023 6.82769 10.6023C6.9291 10.6023 7.00711 10.6491 7.06171 10.7428C7.12411 10.8364 7.15532 10.9651 7.15532 11.1289C7.15532 11.4253 7.08121 11.6671 6.933 11.8543C6.54298 12.338 6.16855 12.6695 5.80973 12.8489C5.45871 13.0205 5.02188 13.1141 4.49925 13.1297C4.18723 13.3949 3.8167 13.5275 3.38768 13.5275Z" fill="white"/>
<path d="M7.73752 6.98681C7.4099 6.98681 7.16418 6.91271 7.00037 6.7645C6.83656 6.60849 6.75466 6.39398 6.75466 6.12096C6.75466 5.84794 6.85996 5.62173 7.07058 5.44232C7.28899 5.2551 7.55811 5.1615 7.87793 5.1615C8.16655 5.1615 8.40056 5.2317 8.57997 5.37211C8.75938 5.51252 8.84909 5.71143 8.84909 5.96885C8.84909 6.28087 8.74768 6.53049 8.54487 6.7177C8.34206 6.89711 8.07294 6.98681 7.73752 6.98681ZM7.64391 13.2701C7.13688 13.2701 6.76636 13.0907 6.53234 12.7319C6.30613 12.3731 6.19302 11.8972 6.19302 11.3044C6.19302 10.9534 6.23592 10.5048 6.32173 9.9588C6.41534 9.40497 6.53234 8.89013 6.67275 8.4143C6.74296 8.16469 6.83656 7.99308 6.95357 7.89947C7.07058 7.80587 7.25779 7.75906 7.5152 7.75906C7.91303 7.75906 8.11194 7.89167 8.11194 8.15689C8.11194 8.3519 8.03784 8.80433 7.88963 9.51417C7.70242 10.3722 7.60881 10.9534 7.60881 11.2576C7.60881 11.4916 7.64001 11.671 7.70242 11.7958C7.76482 11.9206 7.87013 11.983 8.01834 11.983C8.15875 11.983 8.33426 11.8855 8.54487 11.6905C8.75548 11.4955 9.0363 11.1874 9.38732 10.7662C9.48093 10.6569 9.58624 10.6023 9.70324 10.6023C9.80465 10.6023 9.88265 10.6491 9.93726 10.7428C9.99966 10.8364 10.0309 10.9651 10.0309 11.1289C10.0309 11.4409 9.95676 11.6827 9.80855 11.8543C9.0363 12.7982 8.31476 13.2701 7.64391 13.2701Z" fill="white"/>
<path d="M15.075 10.6257C15.1764 10.6257 15.2544 10.6764 15.309 10.7779C15.3714 10.8715 15.4026 10.9924 15.4026 11.1406C15.4026 11.32 15.3753 11.4604 15.3207 11.5618C15.2661 11.6632 15.1803 11.7529 15.0633 11.8309C14.3924 12.2833 13.901 12.6188 13.589 12.8372L12.8401 13.3403C12.5437 14.955 12.1537 16.2226 11.6701 17.1431C11.1942 18.0713 10.5858 18.5354 9.84475 18.5354C9.44692 18.5354 9.1232 18.4106 8.87359 18.161C8.62397 17.9192 8.49916 17.5994 8.49916 17.2016C8.49916 16.6477 8.71758 16.051 9.15441 15.4113C9.59123 14.7795 10.4103 13.9995 11.6116 13.0712L11.6818 12.6149C11.5492 12.8255 11.3736 12.9893 11.1552 13.1063C10.9446 13.2155 10.734 13.2701 10.5234 13.2701C10.0398 13.2701 9.65364 13.0946 9.36502 12.7436C9.0764 12.3926 8.93209 11.9323 8.93209 11.3629C8.93209 10.7389 9.0764 10.1499 9.36502 9.59608C9.65364 9.03444 10.0359 8.58592 10.5117 8.25049C10.9953 7.90727 11.5063 7.73566 12.0445 7.73566C12.2161 7.73566 12.3292 7.77076 12.3838 7.84097C12.4462 7.90337 12.4969 8.02038 12.5359 8.19199C12.6841 8.16079 12.8557 8.14519 13.0508 8.14519C13.2458 8.14519 13.3823 8.17639 13.4603 8.23879C13.5461 8.2934 13.589 8.4065 13.589 8.57812C13.589 8.67172 13.5851 8.74583 13.5773 8.80043C13.5461 9.04224 13.4486 9.65458 13.2848 10.6374C13.2536 10.8247 13.2185 11.0314 13.1795 11.2576C13.1483 11.476 13.1132 11.71 13.0742 11.9596C13.6748 11.4916 14.252 11.0782 14.8059 10.7194C14.9073 10.6569 14.997 10.6257 15.075 10.6257ZM10.9446 12.0883C11.124 12.0883 11.2956 11.9791 11.4595 11.7607C11.6233 11.5423 11.7403 11.2303 11.8105 10.8247L12.1849 8.82383C11.8651 8.83163 11.5687 8.95644 11.2956 9.19825C11.0226 9.43227 10.8042 9.74429 10.6404 10.1343C10.4766 10.5243 10.3947 10.9378 10.3947 11.3746C10.3947 11.6164 10.4415 11.7958 10.5351 11.9128C10.6365 12.0298 10.773 12.0883 10.9446 12.0883ZM9.97346 17.4005C10.1685 17.4005 10.3869 17.1665 10.6287 16.6984C10.8783 16.2304 11.1162 15.4855 11.3424 14.4636C10.7418 14.9784 10.3089 15.4425 10.0437 15.856C9.77844 16.2694 9.64584 16.6321 9.64584 16.9441C9.64584 17.0768 9.66924 17.186 9.71604 17.2718C9.77065 17.3576 9.85645 17.4005 9.97346 17.4005Z" fill="white"/>
</g>
</svg>

<svg xmlns="http://www.w3.org/2000/svg" width="33" height="19" fill="none"><g opacity=".85"><path stroke="#fff" stroke-linecap="round" stroke-linejoin="round" stroke-width="1.25" d="m28.895 8.776-5.12-5.12 2.194-2.193 5.12 5.119z"/><path stroke="#fff" stroke-linecap="round" stroke-linejoin="round" stroke-width="1.25" d="m24.507 4.388-5.485 1.097-2.56 10.603 10.604-2.56 1.097-5.484zM16.463 16.088l5.547-5.547"/><path stroke="#fff" stroke-linecap="round" stroke-linejoin="round" stroke-width="1.25" d="M24.507 9.507a1.463 1.463 0 1 0-2.925 0 1.463 1.463 0 0 0 2.925 0"/><path fill="#fff" d="M3.388 13.528q-.609 0-.936-.281-.316-.28-.316-.632a.72.72 0 0 1 .222-.527q.223-.222.655-.222.153 0 .351.035l.316.035a1.4 1.4 0 0 0-.14-.573 2.5 2.5 0 0 0-.304-.515 6 6 0 0 0-.351-.445 7.3 7.3 0 0 1-.726 1.147 8 8 0 0 1-.772.866q-.21.21-.445.21a.4.4 0 0 1-.304-.128.5.5 0 0 1-.117-.34q0-.233.164-.432l.152-.188q.644-.795.971-1.31.2-.34.468-.901.27-.573.527-1.182.222-.515.924-.515.327 0 .456.059t.129.187q0 .07-.047.222a1.7 1.7 0 0 1-.128.305q-.21.42-.211.713 0 .176.117.386.128.21.386.527.375.491.562.842.199.34.199.75 0 .116-.024.327.573-.222 1.346-1.182.14-.164.316-.164.152 0 .234.14a.7.7 0 0 1 .093.387q0 .444-.222.725-.585.726-1.123.995-.527.258-1.31.28a1.66 1.66 0 0 1-1.112.399"/><path fill="#fff" d="M7.738 6.987q-.492 0-.738-.223-.245-.234-.245-.643t.316-.679q.327-.28.807-.28.434 0 .702.21.27.21.27.597 0 .468-.305.749-.305.27-.807.269m-.094 6.283q-.76 0-1.112-.538-.339-.539-.339-1.428 0-.526.129-1.345.14-.831.35-1.545.106-.374.282-.515.176-.14.561-.14.597 0 .597.398 0 .292-.222 1.357-.282 1.288-.281 1.744 0 .35.093.538.094.187.316.187.21 0 .527-.293.315-.292.842-.924.141-.164.316-.164.153 0 .234.14a.7.7 0 0 1 .094.387q0 .468-.222.725Q8.65 13.27 7.644 13.27"/><path fill="#fff" d="M15.075 10.626q.152 0 .234.152a.64.64 0 0 1 .094.363q0 .27-.082.42a.76.76 0 0 1-.258.27q-1.005.679-1.474 1.006l-.749.503q-.444 2.423-1.17 3.803-.714 1.392-1.825 1.392-.597 0-.971-.374-.375-.363-.375-.96 0-.83.655-1.79.655-.947 2.458-2.34l.07-.456q-.199.315-.527.491-.315.165-.632.164-.725 0-1.158-.526-.433-.527-.433-1.381 0-.936.433-1.767.432-.843 1.147-1.346.725-.514 1.532-.514.258 0 .34.105.093.094.152.351a2.5 2.5 0 0 1 .515-.047q.292 0 .41.094.128.08.128.34 0 .14-.012.221-.046.363-.292 1.837l-.105.62q-.048.328-.106.703.9-.703 1.732-1.24a.53.53 0 0 1 .269-.094m-4.13 1.462q.268 0 .515-.327.245-.328.35-.936l.375-2.001q-.48.011-.89.374a2.46 2.46 0 0 0-.655.936 3.2 3.2 0 0 0-.245 1.24q0 .363.14.539a.51.51 0 0 0 .41.175m-.972 5.313q.293 0 .656-.703.374-.702.713-2.234-.9.772-1.298 1.392t-.398 1.088a.7.7 0 0 0 .07.328q.082.129.257.129"/></g></svg>
